X: 21
T: Corn Rigs   [C]
B: RSCDS 4-12
Z: 1997 by John Chambers <jc:trillian.mit.edu>
N: From Ramsay's Tea table miscellany 1725, also in Playford 1687.
M: C|
L: 1/8
K: C
G2 |\
"C"c2cd e2dc | "G7"BABc d2G2 |\
"C"c2cd "G7"efde | "C"c2g2 "(G7)"g2G2 |\
"C"c2cd e2dc | "G7"BABc dBG2 |\
"F"ABcA "G7"dcBA | "(C)"G2c2 "C"c2 :|
|: G2 |\
"C"c2g2 e2g2 | "G7"BABc d2G2 |\
"C"c2g2 "G7"efde | "C"c2g2 "(G7)"g2G2 |\
"C"c2g2 "Am"agfe | "Dm"fedc "G7"BcdG |\
"F"ABcA "G7"dcBA | "(C)"G2c2 "C"c2 :|

%%sep 1 1 500

